src/images/clubs.svg

<?xml version="1.0" encoding="UTF-8"?>
<svg class="card-suit" width="150px" height="150px" viewBox="0 0 150 150" version="1.1" xmlns="http://www.w3.org/2000/svg" xmlns:xlink="http://www.w3.org/1999/xlink">
    <title>clubs</title>
    <g id="clubs" stroke="none" stroke-width="1" fill="none" fill-rule="evenodd">
        <path d="M74.9886756,6.00005357 C46.6246895,6.61669553 33.9062369,38.5876317 54.9126204,63.4148641 C57.959257,67.0361903 58.2735257,69.1143719 52.6938774,65.6359198 C38.550914,56.1675635 11.4321053,62.3919694 10.0432871,91.3383793 C8.32801244,127.004432 58.1060898,137.280791 67.45232,99.3555382 C67.9459221,95.3541344 71.193946,95.4454425 70.4110309,101.125254 C69.558762,116.541041 64.749841,130.949447 58.1400413,145 C69.280476,145 81.730799,145 91.8599442,145 C85.2504347,130.949447 80.4415137,116.541041 79.5892448,101.125254 C78.8060395,95.4454425 82.0543536,95.3541344 82.5476656,99.3555382 C91.8941859,137.280791 141.672263,127.004432 139.956698,91.3383793 C138.568461,62.3919694 111.449362,56.1675635 97.3061081,65.6359198 C91.7264598,69.1143719 92.0410187,67.0361903 95.0876553,63.4148641 C116.094039,38.5876317 103.375586,6.61672458 75.0118903,6.00005357 C75.0118903,5.99987926 75.0118903,6.00019883 74.9828719,6.00005357 L74.9886756,6.00005357 Z" id="path147-0-8-1-6-1-1-0-4-8-8" fill="currentColor"></path>
    </g>
</svg>

<svg class="clubs_svg__card-suit" width="150" height="150" viewBox="0 0 150 150" xmlns="http://www.w3.org/2000/svg"><title>clubs</title><path d="M74.989 6c-28.364.617-41.083 32.588-20.076 57.415 3.046 3.621 3.36 5.7-2.22 2.22-14.142-9.467-41.26-3.243-42.65 25.703-1.715 35.666 48.063 45.943 57.41 8.018.493-4.002 3.74-3.91 2.958 1.77C69.559 116.54 64.75 130.948 58.14 145h33.72c-6.61-14.05-11.418-28.459-12.27-43.875-.784-5.68 2.464-5.77 2.958-1.77 9.346 37.926 59.124 27.65 57.409-8.017-1.389-28.946-28.508-35.17-42.65-25.702-5.58 3.478-5.266 1.4-2.22-2.221C116.095 38.588 103.377 6.617 75.013 6h-.03.007z" fill="currentColor" fill-rule="evenodd"/></svg>
